X:508
T:
R:vals
S:Efter »Florsen» i Burs.
O:Gotland, Burs
M:3/4
L:1/8
K:F
C2|LF2 (FE) F2|LA2 (FE) F2|Lc2 (FF) (Ac)|Lf2 (Ac) (fa)|
(bg) (ge) (ec)|(af) (fc) (cA)|(cB) (BG) (GE)|F4::ga|
Lb2 (ce) (gb)|La2 (Ac) (fa)|Lg2 (Gc) (eg)|Lf2 (Ac) (fa)|
b2 (ce) (gb)|a2 (Ac) (fa)|g2 (cd) (eg)|f4::AB|c2 A2 f2|
gf ef cA|B2 G2 cB|A2 F2 AB|c2 A2 f2|gf ef cA|B2 G2 c2|
F4::c2|(cd) (ef) (ga)|(ba) (gf) (ed)|(cd) (ef) (ga)|
b4 AB|c2 A2 f2|(gf) (ef) (cA)|B2 G2 c2|F4:|

